X: 1
T: Tapsalteerie
C: Muriel Johnstone
Z: Terry Traub, from Anne Hooper transcr.
R: reel
M: 4/4
L: 1/8
K: A
E2 |\
"A"A2 ae cAec | "D"dcBA "E"B2 Bc | "A"A2 ae cAec | "D"fd"E"BG "A"A2 ||
E2 |\
"A"A2 ae cAec | "D"dcBA "E"B2 Bc | "F#m"A2 "E"GA "D"FA"A/C#"EA | "D"DB"E"GE "A"A2 |]
A2 |\
"A"(3cBA GA EACA | "A"A,CEA "E"B2 Be | "F#m"aA"E"gA "D"fA"A"eA | "E"dBGE "A"A2 ||
A2 |\
"A"(3cBA GA EACA | "A"A,CEA "E"B2 Bd | "A"ca"Bm"da "A/C#"ea"D"fa | "E"gefg "A"a2 |]
